theme/svg/40.svg

<?xml version="1.0" encoding="iso-8859-1"?>
<!-- Generator: Adobe Illustrator 19.0.0, SVG Export Plug-In . SVG Version: 6.00 Build 0)  -->
<svg version="1.1" id="Capa_1" xmlns="http://www.w3.org/2000/svg" xmlns:xlink="http://www.w3.org/1999/xlink" x="0px" y="0px"
	 viewBox="0 0 512 512" style="enable-background:new 0 0 512 512;" xml:space="preserve">
<path style="fill:#EBAF4B;" d="M297.275,468.428h-54.324l26.899-54.667c2.07-4.211,0.336-9.302-3.875-11.376
	c-4.215-2.079-9.302-0.336-11.376,3.875l-30.591,62.168h-45.692c-4.692,0-8.497,3.805-8.497,8.497c0,4.692,3.805,8.497,8.497,8.497
	h118.959c4.692,0,8.497-3.805,8.497-8.497C305.772,472.233,301.968,468.428,297.275,468.428z"/>
<g>
	<path style="fill:#FFC850;" d="M297.275,468.428H276.94l26.899-54.667c2.07-4.211,0.336-9.302-3.875-11.376
		c-4.228-2.079-9.302-0.336-11.376,3.875l-30.591,62.168h-45.692c-4.692,0-8.497,3.805-8.497,8.497c0,4.692,3.805,8.497,8.497,8.497
		h84.971c4.692,0,8.497-3.805,8.497-8.497C305.772,472.233,301.968,468.428,297.275,468.428z"/>
	<path style="fill:#FFC850;" d="M3.454,187.233l41.324,32.693l6.083-67.252L5.572,171.715
		C-0.808,174.397-1.974,182.939,3.454,187.233z"/>
</g>
<path style="fill:#00C3FF;" d="M427.121,268.216c-69.658-6.55-119.932-92.937-150.026-144.981
	c-20.121-34.797-47.088-56.293-87.01-64.083l25.052-32.571c0,0-155.779-2.833-180.161,161.444
	C18.647,332.476,135.861,425.943,271.784,425.943c110.277,0,205.906-65.686,239.61-156.472c2.86-7.704-4.918-15.036-12.509-11.888
	C482.944,264.192,457.97,271.117,427.121,268.216z"/>
<g>
	<path style="fill:#00AAF0;" d="M337.636,413.197c-135.923,0-253.137-93.467-236.808-237.918
		c13.667-92.08,68.611-131.645,114.27-148.647l0.039-0.051c0,0-155.779-2.833-180.161,161.444
		C18.647,332.476,135.861,425.943,271.784,425.943c29.708,0,58.351-4.771,85.009-13.512
		C350.455,412.872,344.084,413.197,337.636,413.197z"/>
	<path style="fill:#00AAF0;" d="M299.464,155.591c-14.095-18.374-39.291-24.058-59.637-13l-0.284,0.155
		c-114.983,62.606,8.56,278.381,197.875,112.142c7.025-6.169,2.676-17.796-6.673-17.798
		C400.544,237.085,351.742,223.739,299.464,155.591z"/>
</g>
<path style="fill:#0096DC;" d="M411.462,235.301c-59.522,55.914-206.572,88.149-215.637-30.259
	c-9.78,80.44,96.68,177.234,241.747,49.709c7.041-6.189,2.472-17.679-6.902-17.69C424.907,237.055,418.469,236.563,411.462,235.301z
	"/>
<path style="fill:#4B3F4E;" d="M110.34,188.025L110.34,188.025c-14.078,0-25.491-11.413-25.491-25.491v-8.497
	c0-14.078,11.413-25.491,25.491-25.491l0,0c14.078,0,25.491,11.413,25.491,25.491v8.497
	C135.831,176.612,124.418,188.025,110.34,188.025z"/>
<path style="fill:#5D5360;" d="M110.34,128.546v29.74c0,7.039,5.706,12.746,12.746,12.746c7.04,0,12.746-5.706,12.746-12.746v-4.249
	C135.831,139.958,124.418,128.546,110.34,128.546z"/>
<circle style="fill:#FFFFFF;" cx="110.34" cy="145.54" r="8.497"/>
<g>
</g>
<g>
</g>
<g>
</g>
<g>
</g>
<g>
</g>
<g>
</g>
<g>
</g>
<g>
</g>
<g>
</g>
<g>
</g>
<g>
</g>
<g>
</g>
<g>
</g>
<g>
</g>
<g>
</g>
</svg>

<svg xmlns="http://www.w3.org/2000/svg" viewBox="0 0 512 512">
    <path fill="#ebaf4b" d="M297.27 468.43h-54.32l26.9-54.67a8.5 8.5 0 0 0-15.25-7.5L224 468.43h-45.68a8.5 8.5 0 0 0 0 17h118.95a8.5 8.5 0 0 0 0-17z"/>
    <path fill="#ffc850" d="M297.27 468.43h-20.33l26.9-54.67a8.5 8.5 0 0 0-15.25-7.5l-30.6 62.17h-45.68a8.5 8.5 0 0 0 0 17h84.97a8.5 8.5 0 0 0 0-17zM3.45 187.23l41.33 32.7 6.08-67.26-45.29 19.05a9.1 9.1 0 0 0-2.12 15.51z"/>
    <path fill="#00c3ff" d="M427.12 268.22c-69.66-6.55-119.93-92.94-150.03-144.99-20.12-34.8-47.08-56.29-87-64.08l25.05-32.57S59.36 23.75 34.98 188.02c-16.33 144.46 100.88 237.92 236.8 237.92 110.28 0 205.91-65.68 239.61-156.47 2.86-7.7-4.91-15.04-12.5-11.89a150.71 150.71 0 0 1-71.77 10.64z"/>
    <g fill="#00aaf0">
        <path d="M337.64 413.2c-135.93 0-253.14-93.47-236.81-237.92C114.5 83.2 169.43 43.63 215.1 26.63l.04-.05S59.36 23.75 34.98 188.02c-16.33 144.46 100.88 237.92 236.8 237.92 29.71 0 58.36-4.77 85.01-13.5-6.34.43-12.7.76-19.15.76z"/>
        <path d="M299.46 155.6c-14.1-18.38-39.29-24.07-59.63-13l-.29.15c-114.98 62.6 8.56 278.38 197.88 112.14 7.02-6.17 2.67-17.8-6.68-17.8-30.2 0-79-13.35-131.28-81.5z"/>
    </g>
    <path fill="#0096dc" d="M411.46 235.3c-59.52 55.91-206.57 88.15-215.63-30.26-9.79 80.44 96.67 177.24 241.74 49.71 7.04-6.19 2.47-17.68-6.9-17.69-5.76 0-12.2-.5-19.2-1.76z"/>
    <path fill="#4b3f4e" d="M110.34 188.03a25.5 25.5 0 0 1-25.5-25.5v-8.5a25.5 25.5 0 0 1 50.98 0v8.5a25.5 25.5 0 0 1-25.48 25.5z"/>
    <path fill="#5d5360" d="M110.34 128.55v29.74a12.75 12.75 0 1 0 25.5 0v-4.25a25.5 25.5 0 0 0-25.5-25.5z"/>
    <circle cx="110.34" cy="145.54" r="8.5" fill="#fff"/>
</svg>
